X:127
T:Hunter's House, The
R:reel
C:Ed Reavy (1898-1988)
D:Music at Matt Molloy's
Z:id:hn-reel-127
M:C|
K:G
BcdB cAFA|~G2BG DGBA|Bd~d2 cAFA|GBAG FDCE|
DG~G2 BGAB|cBAF GABc|defg agfd|cAFA G3A:|
|:B2gB aBgB|~B2gf edcB|Aa~a2 baaf|dfaf gfed|
~B2gB aBgB|~B2gf edcB|cBAg fdef|gdBd cAFA:|
